exports/production-vs-consumption-co2-emissions-d379898f5acaca4a72846acf72053737_v1_850x600.svg

<svg xmlns="http://www.w3.org/2000/svg" version="1.1" style="background-color:#fff;-webkit-font-smoothing:antialiased" width="850" height="600" font-family="'Helvetica Neue',Helvetica,Arial,sans-serif" font-size="18" text-rendering="optimizeLegibility"><g class="ChartTab"><g class="HeaderView"><g opacity=".8" transform="matrix(.31 0 0 .31 770 15)"><a xmlns:xlink="http://www.w3.org/1999/xlink" xlink:href="https://ourworldindata.org" target="_blank"><g><path fill="#1B2543" d="M0 0h211.2v130.1H0z"/><path fill="#E63912" d="M0 112.2h211.2v17.9H0z"/><g><path fill="none" d="M1.2 12.3h210.2v99.2H1.2z"/><path fill="#FFF" d="M37.8 32.2c0 12.7-7.7 19.4-17.1 19.4-9.7 0-16.6-7.5-16.6-18.7 0-11.7 7.3-19.3 17.1-19.3 10.1.1 16.6 7.7 16.6 18.6zm-28.6.6c0 7.9 4.3 14.9 11.8 14.9 7.5 0 11.8-6.9 11.8-15.3 0-7.3-3.8-14.9-11.8-14.9-7.9 0-11.8 7.3-11.8 15.3zM62.7 43.8c0 2.7.1 5.1.2 7.2h-4.3l-.3-4.3h-.1c-1.3 2.1-4 4.9-8.8 4.9-4.2 0-9.1-2.3-9.1-11.6V24.6h4.8v14.6c0 5 1.5 8.4 5.9 8.4 3.2 0 5.5-2.2 6.3-4.4.3-.7.4-1.6.4-2.5V24.6h4.8v19.2zM67.3 32.8c0-3.1-.1-5.8-.2-8.2h4.2l.2 5.2h.2c1.2-3.5 4.1-5.8 7.3-5.8.5 0 .9.1 1.4.2v4.5c-.5-.1-1-.2-1.6-.2-3.4 0-5.8 2.6-6.5 6.2-.1.7-.2 1.4-.2 2.2V51h-4.8V32.8zM95.4 51L86 14.2h5l4.4 18.6c1.1 4.6 2.1 9.2 2.7 12.7h.1c.6-3.7 1.8-8 3-12.8l4.9-18.5h5l4.5 18.7c1 4.4 2 8.7 2.6 12.6h.1c.8-4 1.8-8.1 3-12.7l4.9-18.5h4.9L120.6 51h-5L111 31.9c-1.1-4.7-1.9-8.3-2.4-12h-.1c-.7 3.7-1.5 7.3-2.8 12L100.4 51h-5zM154.9 37.6c0 9.8-6.8 14-13.2 14-7.2 0-12.7-5.2-12.7-13.6 0-8.8 5.8-14 13.1-14 7.7 0 12.8 5.5 12.8 13.6zm-21 .3c0 5.8 3.3 10.1 8 10.1 4.6 0 8-4.3 8-10.3 0-4.5-2.2-10.1-7.9-10.1s-8.1 5.2-8.1 10.3zM158.2 32.8c0-3.1-.1-5.8-.2-8.2h4.2l.2 5.2h.2c1.2-3.5 4.1-5.8 7.3-5.8.5 0 .9.1 1.4.2v4.5c-.5-.1-1-.2-1.6-.2-3.4 0-5.8 2.6-6.5 6.2-.1.7-.2 1.4-.2 2.2V51h-4.8V32.8zM173.5 12.3h4.8V51h-4.8V12.3zM206.5 12.3v31.9c0 2.3.1 5 .2 6.8h-4.3l-.2-4.6h-.2c-1.5 2.9-4.7 5.2-9 5.2-6.4 0-11.3-5.4-11.3-13.4-.1-8.8 5.4-14.2 11.9-14.2 4 0 6.8 1.9 8 4h.1V12.3h4.8zm-4.8 23.1c0-.6-.1-1.4-.2-2a7 7 0 00-6.9-5.6c-5 0-7.9 4.4-7.9 10.2 0 5.3 2.6 9.8 7.8 9.8 3.2 0 6.2-2.1 7.1-5.7.2-.7.2-1.3.2-2.1v-4.6zM42.8 64c.1 1.6-1.1 2.9-3.1 2.9-1.7 0-2.9-1.3-2.9-2.9 0-1.7 1.3-3 3-3 1.9 0 3 1.3 3 3zm-5.4 33.8V71.4h4.8v26.4h-4.8zM47.5 78.6c0-2.7-.1-5-.2-7.1h4.3l.3 4.4h.1c1.3-2.5 4.4-5 8.8-5 3.7 0 9.4 2.2 9.4 11.2v15.8h-4.8V82.6c0-4.3-1.6-7.8-6.1-7.8-3.2 0-5.6 2.2-6.5 4.9-.2.6-.3 1.4-.3 2.2v15.9h-4.8V78.6zM84 61.6c2.9-.4 6.3-.8 10.1-.8 6.8 0 11.7 1.6 14.9 4.6 3.3 3 5.2 7.3 5.2 13.2 0 6-1.9 10.9-5.3 14.3-3.4 3.4-9.1 5.3-16.3 5.3-3.4 0-6.2-.2-8.6-.4V61.6zm4.8 32.5c1.2.2 3 .3 4.8.3 10.2 0 15.7-5.7 15.7-15.6.1-8.7-4.9-14.2-14.9-14.2-2.5 0-4.3.2-5.6.5v29zM132.1 97.8l-.4-3.3h-.2a9.79 9.79 0 01-8.1 3.9c-5.4 0-8.1-3.8-8.1-7.6 0-6.4 5.7-9.9 15.9-9.8v-.5c0-2.2-.6-6.1-6-6.1-2.5 0-5 .8-6.9 2l-1.1-3.2c2.2-1.4 5.4-2.3 8.7-2.3 8.1 0 10.1 5.5 10.1 10.8v9.9c0 2.3.1 4.5.4 6.3h-4.3zm-.7-13.4c-5.3-.1-11.2.8-11.2 5.9 0 3.1 2.1 4.6 4.5 4.6 3.4 0 5.6-2.2 6.4-4.4.2-.5.3-1 .3-1.5v-4.6zM146.6 63.9v7.6h6.9v3.7h-6.9v14.2c0 3.3.9 5.1 3.6 5.1 1.3 0 2.2-.2 2.8-.3l.2 3.6c-.9.4-2.4.7-4.3.7-2.2 0-4-.7-5.2-2-1.4-1.4-1.9-3.8-1.9-6.9V75.1h-4.1v-3.7h4.1v-6.3l4.8-1.2zM171.4 97.8l-.4-3.3h-.2a9.79 9.79 0 01-8.1 3.9c-5.4 0-8.1-3.8-8.1-7.6 0-6.4 5.7-9.9 15.9-9.8v-.5c0-2.2-.6-6.1-6-6.1-2.5 0-5 .8-6.9 2l-1.1-3.2c2.2-1.4 5.4-2.3 8.7-2.3 8.1 0 10.1 5.5 10.1 10.8v9.9c0 2.3.1 4.5.4 6.3h-4.3zm-.7-13.4c-5.3-.1-11.2.8-11.2 5.9 0 3.1 2.1 4.6 4.5 4.6 3.4 0 5.6-2.2 6.4-4.4.2-.5.3-1 .3-1.5v-4.6z"/></g></g></a></g><a href="https://ourworldindata.org/grapher/production-vs-consumption-co2-emissions?country=CHN" target="_blank"><text font-size="27" x="15" y="36.6" fill="#555"><tspan x="15" y="36.6">Production vs. consumption-based CO₂ emissions, China</tspan></text></a><text font-size="14.4" x="15" y="55.5" fill="#666"><tspan x="15" y="55.52">Annual production-based and consumption-based carbon dioxide (CO₂) emissions, measured in million tonnes per</tspan><tspan x="15" y="71.36">year. Consumption-based emissions are those adjusted for trade (production-based emissions minus exports, plus</tspan><tspan x="15" y="87.2">imports). If a country&apos;s consumption-based emissions are higher than its production emissions it is a net importer of</tspan><tspan x="15" y="103.04">carbon dioxide.</tspan></text></g><g class="LineChart"><defs><clipPath id="a"><path d="M82.41 0h830v863.2h-830z"/></clipPath></defs><g class="AxisBoxView"><g class="HorizontalAxis" fill="#666" text-anchor="middle" font-size="16.2"><text x="92.4" y="556.5">1990</text><text x="210.1" y="556.5">1995</text><text x="327.7" y="556.5">2000</text><text x="445.4" y="556.5">2005</text><text x="563" y="556.5">2010</text><text x="680.7" y="556.5">2015</text></g><g class="VerticalAxis" fill="#666" dominant-baseline="middle" text-anchor="end" font-size="16.2"><text x="87.41" y="535.3">0 Mt</text><text x="87.41" y="455.5">2,000 Mt</text><text x="87.41" y="375.7">4,000 Mt</text><text x="87.41" y="295.8">6,000 Mt</text><text x="87.41" y="216">8,000 Mt</text><text x="87.41" y="136.2">10,000 Mt</text></g><g class="AxisGridLines"><path stroke="#ccc" d="M92.41 535.3h588.28"/><path stroke="#ddd" stroke-dasharray="3,2" d="M92.41 455.5h588.28M92.41 375.7h588.28M92.41 295.8h588.28M92.41 216h588.28M92.41 136.2h588.28"/></g><g class="AxisGridLines" stroke="#ddd" stroke-dasharray="3,2"><path d="M92.4 535.3V124.9M210.1 535.3V124.9M327.7 535.3V124.9M445.4 535.3V124.9M563 535.3V124.9M680.7 535.3V124.9"/></g></g><g clip-path="url(#a)"><g class="HeightedLegend clickable"><g class="legendMark"><path fill="#ca2628" d="M690.69 128.95h10v2.5h-10z"/><text font-size="14.4" x="705.7" y="134.5" fill="#333"><tspan x="705.69" y="134.52">Production-based</tspan></text></g><g class="legendMark"><path fill="#3360a9" d="M690.69 199.15h10v2.5h-10z"/><text font-size="14.4" x="705.7" y="204.7" fill="#333"><tspan x="705.69" y="204.72">Consumption-based</tspan></text></g></g><g class="Lines"><g class="key-China_0"><path stroke="#3360a9" stroke-linecap="round" d="M92 448l24-6 24-4 23-7 24-3 23-4 24-5 23 3h24l23-6 24-2 23-10 24-9 23-18 24-23 23-23 24-14 23-18 24-7 24-28 23-17 24-25 23-9 24-10h23l24-3" fill="none" stroke-width="1.5"/><g fill="#3360a9"><circle cx="92" cy="448" r="2"/><circle cx="116" cy="442" r="2"/><circle cx="140" cy="438" r="2"/><circle cx="163" cy="431" r="2"/><circle cx="187" cy="428" r="2"/><circle cx="210" cy="424" r="2"/><circle cx="234" cy="419" r="2"/><circle cx="257" cy="422" r="2"/><circle cx="281" cy="422" r="2"/><circle cx="304" cy="416" r="2"/><circle cx="328" cy="414" r="2"/><circle cx="351" cy="404" r="2"/><circle cx="375" cy="395" r="2"/><circle cx="398" cy="377" r="2"/><circle cx="422" cy="354" r="2"/><circle cx="445" cy="331" r="2"/><circle cx="469" cy="317" r="2"/><circle cx="492" cy="299" r="2"/><circle cx="516" cy="292" r="2"/><circle cx="540" cy="264" r="2"/><circle cx="563" cy="247" r="2"/><circle cx="587" cy="222" r="2"/><circle cx="610" cy="213" r="2"/><circle cx="634" cy="203" r="2"/><circle cx="657" cy="203" r="2"/><circle cx="681" cy="200" r="2"/></g></g><g class="key-China_1"><path stroke="#ca2628" stroke-linecap="round" d="M92 438l24-5 24-5 23-7 24-8 23-10 24-6h23l24 6h23l24-3 23-4 24-14 23-28 24-27 23-27 24-25 23-20 24-21 24-18 23-31 24-38 23-12 24-9 23-1 24 5" fill="none" stroke-width="1.5"/><g fill="#ca2628"><circle cx="92" cy="438" r="2"/><circle cx="116" cy="433" r="2"/><circle cx="140" cy="428" r="2"/><circle cx="163" cy="421" r="2"/><circle cx="187" cy="413" r="2"/><circle cx="210" cy="403" r="2"/><circle cx="234" cy="397" r="2"/><circle cx="257" cy="397" r="2"/><circle cx="281" cy="403" r="2"/><circle cx="304" cy="403" r="2"/><circle cx="328" cy="400" r="2"/><circle cx="351" cy="396" r="2"/><circle cx="375" cy="382" r="2"/><circle cx="398" cy="354" r="2"/><circle cx="422" cy="327" r="2"/><circle cx="445" cy="300" r="2"/><circle cx="469" cy="275" r="2"/><circle cx="492" cy="255" r="2"/><circle cx="516" cy="234" r="2"/><circle cx="540" cy="216" r="2"/><circle cx="563" cy="185" r="2"/><circle cx="587" cy="147" r="2"/><circle cx="610" cy="135" r="2"/><circle cx="634" cy="126" r="2"/><circle cx="657" cy="125" r="2"/><circle cx="681" cy="130" r="2"/></g></g></g></g></g><g class="SourcesFooter" fill="#777"><g class="clickable" fill="#777"><text font-size="12.6" x="15" y="581.6"><tspan x="15" y="581.58">Source: Le Quéré et al. (2017). Global Carbon Project.</tspan></text></g><text font-size="12.6" x="407.4" y="581.6"><tspan x="407.36" y="581.58"><a target="_blank" href="https://ourworldindata.org/co2-and-other-greenhouse-gas-emissions/" fill="#777">OurWorldInData.org/co2-and-other-greenhouse-gas-emissions/</a> • <a href="http://creativecommons.org/licenses/by-sa/4.0/deed.en_US" target="_blank" fill="#777">CC BY-SA</a></tspan></text></g></g></svg>

<svg xmlns="http://www.w3.org/2000/svg" version="1.1" style="font-family: 'Helvetica Neue', Helvetica, Arial, sans-serif; font-size: 18px; background-color: white; text-rendering: optimizeLegibility; -webkit-font-smoothing: antialiased;" width="850" height="600"><g class="ChartTab"><g class="HeaderView"><g opacity="0.8" transform="translate(770, 15) scale(0.31)"><a xmlns:xlink="http://www.w3.org/1999/xlink" xlink:href="https://ourworldindata.org" target="_blank"><g><rect x="0" y="0" fill="#1B2543" width="211.2" height="130.1"/><rect x="0" y="112.2" fill="#E63912" width="211.2" height="17.9"/><g><rect x="1.2" y="12.3" fill="none" width="210.2" height="99.2"/><path fill="#FFFFFF" d="M37.8,32.2c0,12.7-7.7,19.4-17.1,19.4c-9.7,0-16.6-7.5-16.6-18.7c0-11.7,7.3-19.3,17.1-19.3 C31.3,13.7,37.8,21.3,37.8,32.2z M9.2,32.8c0,7.9,4.3,14.9,11.8,14.9c7.5,0,11.8-6.9,11.8-15.3c0-7.3-3.8-14.9-11.8-14.9 C13.1,17.5,9.2,24.8,9.2,32.8z"/><path fill="#FFFFFF" d="M62.7,43.8c0,2.7,0.1,5.1,0.2,7.2h-4.3l-0.3-4.3h-0.1c-1.3,2.1-4,4.9-8.8,4.9c-4.2,0-9.1-2.3-9.1-11.6 V24.6h4.8v14.6c0,5,1.5,8.4,5.9,8.4c3.2,0,5.5-2.2,6.3-4.4c0.3-0.7,0.4-1.6,0.4-2.5V24.6h4.8V43.8z"/><path fill="#FFFFFF" d="M67.3,32.8c0-3.1-0.1-5.8-0.2-8.2h4.2l0.2,5.2h0.2c1.2-3.5,4.1-5.8,7.3-5.8c0.5,0,0.9,0.1,1.4,0.2v4.5 c-0.5-0.1-1-0.2-1.6-0.2c-3.4,0-5.8,2.6-6.5,6.2c-0.1,0.7-0.2,1.4-0.2,2.2V51h-4.8V32.8z"/><path fill="#FFFFFF" d="M95.4,51l-9.4-36.8h5l4.4,18.6c1.1,4.6,2.1,9.2,2.7,12.7h0.1c0.6-3.7,1.8-8,3-12.8l4.9-18.5h5l4.5,18.7 c1,4.4,2,8.7,2.6,12.6h0.1c0.8-4,1.8-8.1,3-12.7l4.9-18.5h4.9L120.6,51h-5L111,31.9c-1.1-4.7-1.9-8.3-2.4-12h-0.1 c-0.7,3.7-1.5,7.3-2.8,12L100.4,51H95.4z"/><path fill="#FFFFFF" d="M154.9,37.6c0,9.8-6.8,14-13.2,14c-7.2,0-12.7-5.2-12.7-13.6c0-8.8,5.8-14,13.1-14 C149.8,24,154.9,29.5,154.9,37.6z M133.9,37.9c0,5.8,3.3,10.1,8,10.1c4.6,0,8-4.3,8-10.3c0-4.5-2.2-10.1-7.9-10.1 C136.3,27.6,133.9,32.8,133.9,37.9z"/><path fill="#FFFFFF" d="M158.2,32.8c0-3.1-0.1-5.8-0.2-8.2h4.2l0.2,5.2h0.2c1.2-3.5,4.1-5.8,7.3-5.8c0.5,0,0.9,0.1,1.4,0.2v4.5 c-0.5-0.1-1-0.2-1.6-0.2c-3.4,0-5.8,2.6-6.5,6.2c-0.1,0.7-0.2,1.4-0.2,2.2V51h-4.8V32.8z"/><path fill="#FFFFFF" d="M173.5,12.3h4.8V51h-4.8V12.3z"/><path fill="#FFFFFF" d="M206.5,12.3v31.9c0,2.3,0.1,5,0.2,6.8h-4.3l-0.2-4.6H202c-1.5,2.9-4.7,5.2-9,5.2 c-6.4,0-11.3-5.4-11.3-13.4c-0.1-8.8,5.4-14.2,11.9-14.2c4,0,6.8,1.9,8,4h0.1V12.3H206.5z M201.7,35.4c0-0.6-0.1-1.4-0.2-2 c-0.7-3.1-3.3-5.6-6.9-5.6c-5,0-7.9,4.4-7.9,10.2c0,5.3,2.6,9.8,7.8,9.8c3.2,0,6.2-2.1,7.1-5.7c0.2-0.7,0.2-1.3,0.2-2.1V35.4z"/><path fill="#FFFFFF" d="M42.8,64c0.1,1.6-1.1,2.9-3.1,2.9c-1.7,0-2.9-1.3-2.9-2.9c0-1.7,1.3-3,3-3C41.7,61,42.8,62.3,42.8,64z M37.4,97.8V71.4h4.8v26.4H37.4z"/><path fill="#FFFFFF" d="M47.5,78.6c0-2.7-0.1-5-0.2-7.1h4.3l0.3,4.4h0.1c1.3-2.5,4.4-5,8.8-5c3.7,0,9.4,2.2,9.4,11.2v15.8h-4.8 V82.6c0-4.3-1.6-7.8-6.1-7.8c-3.2,0-5.6,2.2-6.5,4.9c-0.2,0.6-0.3,1.4-0.3,2.2v15.9h-4.8V78.6z"/><path fill="#FFFFFF" d="M84,61.6c2.9-0.4,6.3-0.8,10.1-0.8c6.8,0,11.7,1.6,14.9,4.6c3.3,3,5.2,7.3,5.2,13.2c0,6-1.9,10.9-5.3,14.3 c-3.4,3.4-9.1,5.3-16.3,5.3c-3.4,0-6.2-0.2-8.6-0.4V61.6z M88.8,94.1c1.2,0.2,3,0.3,4.8,0.3c10.2,0,15.7-5.7,15.7-15.6 c0.1-8.7-4.9-14.2-14.9-14.2c-2.5,0-4.3,0.2-5.6,0.5V94.1z"/><path fill="#FFFFFF" d="M132.1,97.8l-0.4-3.3h-0.2c-1.5,2.1-4.3,3.9-8.1,3.9c-5.4,0-8.1-3.8-8.1-7.6c0-6.4,5.7-9.9,15.9-9.8v-0.5 c0-2.2-0.6-6.1-6-6.1c-2.5,0-5,0.8-6.9,2l-1.1-3.2c2.2-1.4,5.4-2.3,8.7-2.3c8.1,0,10.1,5.5,10.1,10.8v9.9c0,2.3,0.1,4.5,0.4,6.3 H132.1z M131.4,84.4c-5.3-0.1-11.2,0.8-11.2,5.9c0,3.1,2.1,4.6,4.5,4.6c3.4,0,5.6-2.2,6.4-4.4c0.2-0.5,0.3-1,0.3-1.5V84.4z"/><path fill="#FFFFFF" d="M146.6,63.9v7.6h6.9v3.7h-6.9v14.2c0,3.3,0.9,5.1,3.6,5.1c1.3,0,2.2-0.2,2.8-0.3l0.2,3.6 c-0.9,0.4-2.4,0.7-4.3,0.7c-2.2,0-4-0.7-5.2-2c-1.4-1.4-1.9-3.8-1.9-6.9V75.1h-4.1v-3.7h4.1v-6.3L146.6,63.9z"/><path fill="#FFFFFF" d="M171.4,97.8l-0.4-3.3h-0.2c-1.5,2.1-4.3,3.9-8.1,3.9c-5.4,0-8.1-3.8-8.1-7.6c0-6.4,5.7-9.9,15.9-9.8v-0.5 c0-2.2-0.6-6.1-6-6.1c-2.5,0-5,0.8-6.9,2l-1.1-3.2c2.2-1.4,5.4-2.3,8.7-2.3c8.1,0,10.1,5.5,10.1,10.8v9.9c0,2.3,0.1,4.5,0.4,6.3 H171.4z M170.7,84.4c-5.3-0.1-11.2,0.8-11.2,5.9c0,3.1,2.1,4.6,4.5,4.6c3.4,0,5.6-2.2,6.4-4.4c0.2-0.5,0.3-1,0.3-1.5V84.4z"/></g></g></a></g><a href="https://ourworldindata.org/grapher/production-vs-consumption-co2-emissions?country=CHN" target="_blank"><text font-size="27.00" x="15.0" y="36.6" fill="#555"><tspan x="15" y="36.6">Production vs. consumption-based CO₂ emissions, China</tspan></text></a><text font-size="14.40" x="15.0" y="55.5" fill="#666"><tspan x="15" y="55.519999999999996">Annual production-based and consumption-based carbon dioxide (CO₂) emissions, measured in million tonnes per</tspan><tspan x="15" y="71.36">year. Consumption-based emissions are those adjusted for trade (production-based emissions minus exports, plus</tspan><tspan x="15" y="87.2">imports). If a country's consumption-based emissions are higher than its production emissions it is a net importer of</tspan><tspan x="15" y="103.03999999999999">carbon dioxide.</tspan></text></g><g class="LineChart"><defs><clipPath id="boundsClip-552"><rect x="82.414" y="0" width="830" height="863.2"></rect></clipPath></defs><g class="AxisBoxView"><g class="HorizontalAxis"><text x="92.4" y="556.5" fill="#666" text-anchor="middle" font-size="16.2">1990</text><text x="210.1" y="556.5" fill="#666" text-anchor="middle" font-size="16.2">1995</text><text x="327.7" y="556.5" fill="#666" text-anchor="middle" font-size="16.2">2000</text><text x="445.4" y="556.5" fill="#666" text-anchor="middle" font-size="16.2">2005</text><text x="563" y="556.5" fill="#666" text-anchor="middle" font-size="16.2">2010</text><text x="680.7" y="556.5" fill="#666" text-anchor="middle" font-size="16.2">2015</text></g><g class="VerticalAxis"><text x="87.41" y="535.3" fill="#666" dominant-baseline="middle" text-anchor="end" font-size="16.2">0 Mt</text><text x="87.41" y="455.5" fill="#666" dominant-baseline="middle" text-anchor="end" font-size="16.2">2,000 Mt</text><text x="87.41" y="375.7" fill="#666" dominant-baseline="middle" text-anchor="end" font-size="16.2">4,000 Mt</text><text x="87.41" y="295.8" fill="#666" dominant-baseline="middle" text-anchor="end" font-size="16.2">6,000 Mt</text><text x="87.41" y="216" fill="#666" dominant-baseline="middle" text-anchor="end" font-size="16.2">8,000 Mt</text><text x="87.41" y="136.2" fill="#666" dominant-baseline="middle" text-anchor="end" font-size="16.2">10,000 Mt</text></g><g class="AxisGridLines"><line x1="92.41" y1="535.3" x2="680.69" y2="535.3" stroke="#ccc"></line><line x1="92.41" y1="455.5" x2="680.69" y2="455.5" stroke="#ddd" stroke-dasharray="3,2"></line><line x1="92.41" y1="375.7" x2="680.69" y2="375.7" stroke="#ddd" stroke-dasharray="3,2"></line><line x1="92.41" y1="295.8" x2="680.69" y2="295.8" stroke="#ddd" stroke-dasharray="3,2"></line><line x1="92.41" y1="216" x2="680.69" y2="216" stroke="#ddd" stroke-dasharray="3,2"></line><line x1="92.41" y1="136.2" x2="680.69" y2="136.2" stroke="#ddd" stroke-dasharray="3,2"></line></g><g class="AxisGridLines"><line x1="92.4" y1="535.30" x2="92.4" y2="124.90" stroke="#ddd" stroke-dasharray="3,2"></line><line x1="210.1" y1="535.30" x2="210.1" y2="124.90" stroke="#ddd" stroke-dasharray="3,2"></line><line x1="327.7" y1="535.30" x2="327.7" y2="124.90" stroke="#ddd" stroke-dasharray="3,2"></line><line x1="445.4" y1="535.30" x2="445.4" y2="124.90" stroke="#ddd" stroke-dasharray="3,2"></line><line x1="563" y1="535.30" x2="563" y2="124.90" stroke="#ddd" stroke-dasharray="3,2"></line><line x1="680.7" y1="535.30" x2="680.7" y2="124.90" stroke="#ddd" stroke-dasharray="3,2"></line></g></g><g clip-path="url(#boundsClip-552)"><g class="HeightedLegend clickable"><g class="legendMark"><rect x="690.688" y="122.99999999999999" width="128.32800000000003" height="14.4" fill="#fff" opacity="0"></rect><rect x="690.688" y="128.95" width="10" height="2.5" fill="#ca2628"></rect><text font-size="14.40" x="705.7" y="134.5" fill="#333"><tspan x="705.688" y="134.51999999999998">Production-based</tspan></text></g><g class="legendMark"><rect x="690.688" y="193.20000000000002" width="144.312" height="14.4" fill="#fff" opacity="0"></rect><rect x="690.688" y="199.15" width="10" height="2.5" fill="#3360a9"></rect><text font-size="14.40" x="705.7" y="204.7" fill="#333"><tspan x="705.688" y="204.72000000000003">Consumption-based</tspan></text></g></g><g class="Lines"><rect x="92" y="125" width="588" height="410" fill="rgba(255,255,255,0)" opacity="0"></rect><g class="key-China_0"><path stroke="#3360a9" stroke-linecap="round" d="M92 448L116 442L140 438L163 431L187 428L210 424L234 419L257 422L281 422L304 416L328 414L351 404L375 395L398 377L422 354L445 331L469 317L492 299L516 292L540 264L563 247L587 222L610 213L634 203L657 203L681 200" fill="none" stroke-width="1.5"></path><g fill="#3360a9"><circle cx="92" cy="448" r="2"></circle><circle cx="116" cy="442" r="2"></circle><circle cx="140" cy="438" r="2"></circle><circle cx="163" cy="431" r="2"></circle><circle cx="187" cy="428" r="2"></circle><circle cx="210" cy="424" r="2"></circle><circle cx="234" cy="419" r="2"></circle><circle cx="257" cy="422" r="2"></circle><circle cx="281" cy="422" r="2"></circle><circle cx="304" cy="416" r="2"></circle><circle cx="328" cy="414" r="2"></circle><circle cx="351" cy="404" r="2"></circle><circle cx="375" cy="395" r="2"></circle><circle cx="398" cy="377" r="2"></circle><circle cx="422" cy="354" r="2"></circle><circle cx="445" cy="331" r="2"></circle><circle cx="469" cy="317" r="2"></circle><circle cx="492" cy="299" r="2"></circle><circle cx="516" cy="292" r="2"></circle><circle cx="540" cy="264" r="2"></circle><circle cx="563" cy="247" r="2"></circle><circle cx="587" cy="222" r="2"></circle><circle cx="610" cy="213" r="2"></circle><circle cx="634" cy="203" r="2"></circle><circle cx="657" cy="203" r="2"></circle><circle cx="681" cy="200" r="2"></circle></g></g><g class="key-China_1"><path stroke="#ca2628" stroke-linecap="round" d="M92 438L116 433L140 428L163 421L187 413L210 403L234 397L257 397L281 403L304 403L328 400L351 396L375 382L398 354L422 327L445 300L469 275L492 255L516 234L540 216L563 185L587 147L610 135L634 126L657 125L681 130" fill="none" stroke-width="1.5"></path><g fill="#ca2628"><circle cx="92" cy="438" r="2"></circle><circle cx="116" cy="433" r="2"></circle><circle cx="140" cy="428" r="2"></circle><circle cx="163" cy="421" r="2"></circle><circle cx="187" cy="413" r="2"></circle><circle cx="210" cy="403" r="2"></circle><circle cx="234" cy="397" r="2"></circle><circle cx="257" cy="397" r="2"></circle><circle cx="281" cy="403" r="2"></circle><circle cx="304" cy="403" r="2"></circle><circle cx="328" cy="400" r="2"></circle><circle cx="351" cy="396" r="2"></circle><circle cx="375" cy="382" r="2"></circle><circle cx="398" cy="354" r="2"></circle><circle cx="422" cy="327" r="2"></circle><circle cx="445" cy="300" r="2"></circle><circle cx="469" cy="275" r="2"></circle><circle cx="492" cy="255" r="2"></circle><circle cx="516" cy="234" r="2"></circle><circle cx="540" cy="216" r="2"></circle><circle cx="563" cy="185" r="2"></circle><circle cx="587" cy="147" r="2"></circle><circle cx="610" cy="135" r="2"></circle><circle cx="634" cy="126" r="2"></circle><circle cx="657" cy="125" r="2"></circle><circle cx="681" cy="130" r="2"></circle></g></g></g></g></g><g style="fill: #777;" class="SourcesFooter"><g style="fill: #777;" class="clickable"><text font-size="12.60" x="15.0" y="581.6"><tspan x="15" y="581.58">Source: Le Quéré et al. (2017). Global Carbon Project.</tspan></text></g><text font-size="12.60" x="407.4" y="581.6"><tspan x="407.356" y="581.58"><a target='_blank' style='fill: #777;' href='https://ourworldindata.org/co2-and-other-greenhouse-gas-emissions/'>OurWorldInData.org/co2-and-other-greenhouse-gas-emissions/</a> • <a style="fill: #777;" href="http://creativecommons.org/licenses/by-sa/4.0/deed.en_US" target="_blank">CC BY-SA</a></tspan></text></g></g></svg>
